packages/foundations/assets/icons/functional/images/communication/speech_bubble_question_mark_14_filled.svg

<svg width="14" height="14" viewBox="0 0 14 14" fill="none" xmlns="http://www.w3.org/2000/svg">
<g clip-path="url(#clip0_2204_2322)">
<path fill-rule="evenodd" clip-rule="evenodd" d="M10.7882 1.39999C11.8451 1.39999 12.6 2.19251 12.6 3.14901V8.7513C12.6 9.7078 11.8177 10.5003 10.8432 10.5003H4.79026C4.58435 10.5003 4.40593 10.555 4.28239 10.6916L2.59419 12.3996C2.15498 12.8369 1.40002 12.509 1.40002 11.8941V3.14901C1.40002 2.19251 2.19616 1.39999 3.17065 1.39999H10.7882ZM7.00006 7.61249C6.55225 7.61249 6.21252 7.95558 6.21252 8.39216C6.21252 8.82883 6.55225 9.18749 7.00006 9.18749C7.4478 9.18749 7.78752 8.82883 7.78752 8.39216C7.78752 7.95558 7.4478 7.61249 7.00006 7.61249ZM7.1704 2.70187C6.54079 2.70187 5.84994 3.00665 5.552 3.24755L6.02904 4.48565C6.33034 4.31869 6.7187 4.18772 7.05437 4.18772C7.44561 4.18772 7.54782 4.36562 7.54782 4.56324C7.54782 4.78105 7.4236 4.92379 7.25361 5.05456L6.87585 5.31883C6.58164 5.53311 6.30214 5.8151 6.30214 6.37778V6.91249H7.69836V6.37778C7.695 6.18947 7.88735 6.04991 8.22365 5.7531C8.55994 5.45628 8.93359 5.04623 8.93359 4.29737C8.93359 3.32521 8.16375 2.70187 7.1704 2.70187Z" fill="#1A1C1F"/>
</g>
<defs>
<clipPath id="clip0_2204_2322">
<rect width="14" height="14" fill="white"/>
</clipPath>
</defs>
</svg>

<svg xmlns="http://www.w3.org/2000/svg" width="14" height="14" fill="none"><g clip-path="url(#a)"><path fill="#1A1C1F" fill-rule="evenodd" d="M10.788 1.4c1.057 0 1.812.793 1.812 1.749v5.602c0 .957-.782 1.75-1.757 1.75H4.79c-.206 0-.384.054-.508.19L2.594 12.4c-.439.437-1.194.109-1.194-.506V3.15c0-.956.796-1.749 1.77-1.749zM7 7.612a.77.77 0 0 0-.787.78c0 .437.34.795.787.795a.785.785 0 0 0 .788-.795c0-.436-.34-.78-.788-.78m.17-4.91c-.63 0-1.32.305-1.618.546l.477 1.238c.301-.167.69-.298 1.025-.298.392 0 .494.178.494.375 0 .218-.124.36-.294.492l-.378.264c-.294.214-.574.496-.574 1.059v.534h1.396v-.534c-.003-.189.19-.328.526-.625s.71-.707.71-1.456c0-.972-.77-1.595-1.764-1.595" clip-rule="evenodd"/></g><defs><clipPath id="a"><path fill="#fff" d="M0 0h14v14H0z"/></clipPath></defs></svg>
